X:1
T:Title
%%score { ( 1 3 ) | ( 2 4 ) }
L:1/8
Q:1/4=100
M:4/4
K:C
V:1 treble nm="Grand Piano"
V:3 treble 
V:2 bass 
V:4 bass 
V:1
 E2 E2 E2 G2 | F4 E4 | A2 c2 B2 A2 | [CG]8 | z2 [Ec]2 z4 | [DG]4 [DB]4 | [^Fd]2 [Fc]2 [FB]2 [FA]2 | %7
w: S.~M.~Bixby * * *|||||||
 B4 A2 G2 | G2 G2 G2 [E^G]2 | [FA]4 [GA]4 | [^Fd]2 [FA]2 [Fd]2 [Fc]2 | B8 | G2 [Gc]2 [Ge]2 [Ed]2 | %13
w: ||||||
 d4 c2 A2 | G2 c2 c2 B2 |[M:8/4] [Ec]8 z8 |[M:4/4] [Fc]8 | [Ec]8 |] %18
w: |||||
V:2
 [C,G,C]2 [C,G,C]2 [C,G,C]2 [E,G,C]2 | [D,G,B,]4 [C,G,C]4 | [C,F,C]2 [C,A,C]2 [C,G,C]2 [C,F,C]2 | %3
 [B,,E,]8 | [A,,A,]2 .[A,,E,]2 [B,,^G,]2 [C,A,]2 | [D,B,]4 [D,G,]4 | %6
 [D,A,]2 [D,A,]2 [D,D]2 [D,C]2 | z4 F4 | [CE]2 [G,CE]2[K:bass] [E,CE]2 [C,C]2 | [F,C]4 [E,C]4 | %10
 [D,D]2 [D,D]2 [D,A,]2 [D,D]2 | [DG]8 | [E,C]2 [E,C]2 [C,_B,]2 [C,B,]2 | z4[K:treble] [F,F]4 | %14
 [G,CE]2 [G,EG]2 [G,DF]2 [G,DF]2 |[M:8/4][K:bass] [C,C]8 z8 |[M:4/4] [F,A,]8 | [C,G,]8 |] %18
V:3
 x8 | x8 | x8 | x8 | [Ec]2 z ^F, [EB]2 [EA]2 | x8 | x8 | x8 | x8 | x8 | x8 | z4 z2 F,2 | x8 | x8 | %14
 x8 |[M:8/4] x16 |[M:4/4] x8 | x8 |] %18
V:4
 x8 | x8 | x8 | x8 | x8 | x8 | x8 | [G,B,G]4 [A,C]2 [B,D]2 | x4[K:bass] x4 | x8 | x8 | G,6 z2 | %12
 x8 | [F,A,F]4[K:treble] A,2 C2 | x8 |[M:8/4][K:bass] x16 |[M:4/4] x8 | x8 |] %18

